X:1
T: Fish And Taters
M: 2/4
L: 1/8
R: polka
K:Gmaj
FA AB/c/ | dc BA | FA AB/c/ | dF ED | FA AB/c/ | dc BA | Be ed/c/ | Bc d>A:|
fd de/f/ | ed BA | fd de/f/ | ed B2 | fd de/f/ | ed BA | Be ed/c/ | Bc d>e:|
